pages/zim/img/icon/instagram.svg

<svg width="24" height="24" viewBox="0 0 24 24" fill="none" xmlns="http://www.w3.org/2000/svg">
<g clip-path="url(#clip0)">
<path d="M14.2969 11.7491C14.2969 12.9911 13.2686 13.9979 12 13.9979C10.7314 13.9979 9.70312 12.9911 9.70312 11.7491C9.70312 10.5071 10.7314 9.50024 12 9.50024C13.2686 9.50024 14.2969 10.5071 14.2969 11.7491Z" fill="white" fill-opacity="0.75"/>
<path d="M17.3716 7.77025C17.2612 7.47732 17.085 7.21217 16.8561 6.99453C16.6339 6.77043 16.3632 6.59797 16.0638 6.48986C15.821 6.39754 15.4563 6.28764 14.7845 6.2577C14.0577 6.22525 13.8398 6.21826 12 6.21826C10.16 6.21826 9.94208 6.22507 9.21552 6.25752C8.5437 6.28764 8.17877 6.39754 7.93616 6.48986C7.63678 6.59797 7.36597 6.77043 7.14386 6.99453C6.91498 7.21217 6.73883 7.47714 6.62823 7.77025C6.53394 8.00797 6.42169 8.36527 6.39111 9.02303C6.35797 9.7344 6.35083 9.94774 6.35083 11.7493C6.35083 13.5506 6.35797 13.764 6.39111 14.4755C6.42169 15.1333 6.53394 15.4904 6.62823 15.7281C6.73883 16.0212 6.91479 16.2862 7.14368 16.5039C7.36597 16.728 7.6366 16.9004 7.93597 17.0085C8.17877 17.101 8.5437 17.2109 9.21552 17.2409C9.94208 17.2733 10.1598 17.2801 11.9998 17.2801C13.84 17.2801 14.0579 17.2733 14.7843 17.2409C15.4561 17.2109 15.821 17.101 16.0638 17.0085C16.6648 16.7816 17.1398 16.3165 17.3716 15.7281C17.4659 15.4904 17.5781 15.1333 17.6089 14.4755C17.642 13.764 17.649 13.5506 17.649 11.7493C17.649 9.94774 17.642 9.7344 17.6089 9.02303C17.5783 8.36527 17.4661 8.00797 17.3716 7.77025ZM12 15.2134C10.0457 15.2134 8.46149 13.6625 8.46149 11.7491C8.46149 9.83569 10.0457 8.28478 12 8.28478C13.9541 8.28478 15.5383 9.83569 15.5383 11.7491C15.5383 13.6625 13.9541 15.2134 12 15.2134ZM15.6782 8.95742C15.2216 8.95742 14.8513 8.59492 14.8513 8.14781C14.8513 7.70069 15.2216 7.3382 15.6782 7.3382C16.1349 7.3382 16.5051 7.70069 16.5051 8.14781C16.5049 8.59492 16.1349 8.95742 15.6782 8.95742Z" fill="white" fill-opacity="0.75"/>
<path d="M12 0C5.3736 0 0 5.26121 0 11.749C0 18.2368 5.3736 23.498 12 23.498C18.6264 23.498 24 18.2368 24 11.749C24 5.26121 18.6264 0 12 0ZM18.8491 14.5305C18.8157 15.2487 18.6991 15.739 18.5288 16.1682C18.1708 17.0744 17.4391 17.7908 16.5135 18.1413C16.0754 18.308 15.5744 18.422 14.8411 18.4548C14.1063 18.4876 13.8715 18.4955 12.0002 18.4955C10.1287 18.4955 9.8941 18.4876 9.15912 18.4548C8.42578 18.422 7.9248 18.308 7.48663 18.1413C7.02667 17.9719 6.61029 17.7064 6.26605 17.363C5.91559 17.0262 5.64441 16.6183 5.47137 16.1682C5.30109 15.7392 5.18445 15.2487 5.15112 14.5307C5.11725 13.8111 5.10938 13.5812 5.10938 11.749C5.10938 9.91682 5.11725 9.68699 5.15094 8.96756C5.18427 8.24938 5.30072 7.75906 5.47101 7.32987C5.64404 6.87971 5.91541 6.47186 6.26605 6.135C6.61011 5.79169 7.02667 5.52618 7.48645 5.35676C7.9248 5.19004 8.4256 5.07602 9.15912 5.04321C9.89392 5.0104 10.1287 5.00251 12 5.00251C13.8713 5.00251 14.1061 5.0104 14.8409 5.04339C15.5744 5.07602 16.0752 5.19004 16.5135 5.35658C16.9733 5.526 17.3899 5.79169 17.7341 6.135C18.0846 6.47204 18.356 6.87971 18.5288 7.32987C18.6993 7.75906 18.8157 8.24938 18.8492 8.96756C18.8828 9.68699 18.8906 9.91682 18.8906 11.749C18.8906 13.5812 18.8828 13.8111 18.8491 14.5305Z" fill="white" fill-opacity="0.75"/>
</g>
<defs>
<clipPath id="clip0">
<rect width="24" height="23.498" fill="white"/>
</clipPath>
</defs>
</svg>

<svg width="24" height="24" fill="none" xmlns="http://www.w3.org/2000/svg"><g clip-path="url(#clip0)" fill="#fff" fill-opacity=".75"><path d="M14.297 11.75c0 1.241-1.028 2.248-2.297 2.248-1.269 0-2.297-1.007-2.297-2.249C9.703 10.507 10.731 9.5 12 9.5c1.269 0 2.297 1.007 2.297 2.25z"/><path d="M17.372 7.77a2.086 2.086 0 00-.516-.775 2.138 2.138 0 00-.792-.505c-.243-.092-.608-.202-1.28-.232-.726-.033-.944-.04-2.784-.04-1.84 0-2.058.007-2.784.04-.672.03-1.037.14-1.28.232-.3.108-.57.28-.792.505a2.088 2.088 0 00-.516.775c-.094.238-.206.595-.237 1.253-.033.711-.04.925-.04 2.726 0 1.802.007 2.015.04 2.726.03.658.143 1.015.237 1.253.11.293.287.558.516.776.222.224.493.396.792.505.243.092.608.202 1.28.232.726.032.944.04 2.784.04 1.84 0 2.058-.008 2.784-.04.672-.03 1.037-.14 1.28-.232a2.258 2.258 0 001.308-1.28c.094-.239.206-.596.237-1.253.033-.712.04-.925.04-2.727 0-1.801-.007-2.015-.04-2.726-.03-.658-.143-1.015-.237-1.253zM12 15.213c-1.954 0-3.539-1.55-3.539-3.464 0-1.913 1.585-3.464 3.539-3.464 1.954 0 3.538 1.55 3.538 3.464 0 1.913-1.584 3.464-3.538 3.464zm3.678-6.256a.818.818 0 01-.827-.81c0-.446.37-.809.827-.809.457 0 .827.363.827.81 0 .447-.37.81-.827.81z"/><path d="M12 0C5.374 0 0 5.261 0 11.749s5.374 11.749 12 11.749 12-5.261 12-11.749S18.626 0 12 0zm6.85 14.53c-.034.719-.15 1.209-.321 1.638a3.488 3.488 0 01-2.015 1.973c-.439.167-.94.281-1.673.314-.735.033-.97.04-2.84.04-1.872 0-2.107-.007-2.842-.04-.733-.033-1.234-.147-1.672-.314a3.383 3.383 0 01-1.221-.778 3.3 3.3 0 01-.795-1.195c-.17-.429-.287-.92-.32-1.637-.034-.72-.042-.95-.042-2.782s.008-2.062.042-2.781c.033-.719.15-1.209.32-1.638a3.3 3.3 0 01.795-1.195c.344-.343.76-.609 1.22-.778.439-.167.94-.281 1.673-.314.735-.033.97-.04 2.841-.04 1.871 0 2.106.007 2.84.04s1.235.147 1.674.314c.46.169.876.435 1.22.778.35.337.622.745.795 1.195.17.43.287.92.32 1.638.034.719.042.949.042 2.781 0 1.832-.008 2.062-.042 2.781z"/></g><defs><clipPath id="clip0"><path fill="#fff" d="M0 0h24v23.498H0z"/></clipPath></defs></svg>
